!!!COM: Schmitt, Karl Gustavus
!!!CDT: 1834-1900
!!!OTL: National Anthem, Tonga
!!!ENC: Davis, Matthew J.
!!Vocal Line Only
**kern
*clefG2
*k[f#]
*G:
*M4/4
=1-
4.g
8g
4b
4b
=2
4cc
4a
4.b
8b
=3
4ee
4dd
4cc
4b
=4
4.dd
8b
2a
=5
4.a
8a
4dd
4dd
=6
4cc#
4b
4a
4a
=7
4b
4f
4f#
4f#
=8
4e
4e
2d
=9
4.g
8g
4b
4b
=10
4cc
4a
4.b
8b
=11
4ee
4dd
4cc
4b
=12
4.b
8dd
2cc
=13
4.cc
8dd
4cc
4b
=14
4.dd
8ee
4dd
4cc
=15
4.ee
8ee
4dd
4b
=16
4a
4dd
2g
==|!
*-
